X:154
T:Fairy Queen, The
R:hornpipe
D:Conal O'Grada: The Top of Coom
Z:id:hn-hornpipe-154
M:C|
L:1/8
K:D
d2~d2 d2AG | FDFA dAFA | GABG E2ef | gece dcBA |
df (3edc d2AG | FDFA dAFA | GABG E2ef | gece d3A :|
|: df~f2 gece | da~a2 ba~a2 | fdAF G2ef | ge~e2 gece |
df~f2 ~g3a | ba~a2 baag | fdAF G2ef | gece d3A :|

